X:1
T:Title
%%score ( 1 2 ) ( 3 4 )
L:1/8
Q:1/4=105
M:6/8
K:Bb
V:1 treble nm="Strings 1, Treble"
V:2 treble 
V:3 bass nm="Strings 1, Bass"
V:4 bass 
V:1
 z3 z2 [DF] | [DF]2 [DB] [Fd]2 [DB] | [EG]2 [Ec] [Ec]2 [=EB] | z3 .A3 | %4
w: 1.~We~|stand~ up on~ the~|sea~ of~ glass,~ That's~|with~|
 [FB]2 [Fc] [Fd]2[Q:1/4=105] [DF][Q:1/4=12] | [DF]2 [DB] [Fd]2 [DB] | [Fd]2 [Fc] [Fc]2 [Fe] | %7
w: ho vah's~ fire;~ Our~|robes~ are~ white,~ our~|feet~ as~ brass,~ We~|
 z3 .B3 | z6 |[M:12/8] z6 d6- | d2 z z3 F6- | F2 z z3 A6- | A2 z z3 B6- | B2 z z3 d6- | %14
w: on~|||||||
 d2 z z3 F6- | F2 z z3 c6- | c2 z z3 z6 | z12 |] %18
w: ||||
V:2
 x6 | x6 | x6 | [FA]2 [FA] F-[FG][FA] | x6 | x6 | x6 | [Fd]2 [Ec] D-[DA][FB] | [Fd]2 [Ec] [DB]3- | %9
w: |||* gled~ * * Je||||* up * * the~|* em pire.~|
[M:12/8] [DB]2 D F2 B z2 F F2 F | F2 c B2 D z2 D D2 D | D2 G F2 B z2 E E2 E | E2 F A2 c z2 F F2 F | %13
w: ||||
 F2 D F2 B z2 F F2 F | F2 c B2 D z2 D D2 D | D2 G F2 B z2 E E2 E | E2 [EF] [EA]2 [Ec] [DB]6- | %17
w: ||||
 [DB]6 z6 |] %18
w: |
V:3
 z3 z2 [B,,B,] | [B,,B,]2 [B,,B,] [B,,B,]2 [B,,B,] | [E,B,]2 [E,G,] [E,G,]2 [C,C] | %3
 [F,C]2 [F,C] CB,[F,C] | [D,B,]2 [F,A,] B,2 [B,,B,] | [B,,B,]2 [B,,B,] [B,,B,]2 [B,,B,] | %6
 [F,B,]2 [F,A,] [F,A,]2 [F,A,] | z3 .B,3 | [F,B,]2 [F,A,] [B,,B,]3- | %9
[M:12/8] [B,,B,]2 z z3 z2 [B,,B,] [B,,B,]2 [B,,B,] | .[B,,B,]3 z3 z2 [B,,B,] [B,,B,]2 [B,,B,] | %11
 .[B,,B,]3 z3 z2 [F,C] [F,C]2 [F,C] | .[F,C]3 z3 z2 [B,,D] [B,,D]2 [B,,D] | %13
 .[B,,D]3 z3 z2 B, B,2 B, | .B,3 z3 z2 [B,,B,] [B,,B,]2 [B,,B,] | %15
 .[B,,B,]3 z3 z2 [F,A,] [F,A,]2 [F,A,] | [F,A,]2 [F,A,] [F,C]2 [F,A,] [B,,F,B,]6- | %17
 [B,,F,B,]6 z6 |] %18
V:4
 x6 | x6 | x6 | z3 .F,3 | x6 | x6 | x6 | [B,,B,]2 [B,,B,] B,,C,[D,B,] | x6 |[M:12/8] x12 | x12 | %11
 x12 | x12 | x12 | x12 | x12 | x12 | x12 |] %18

